lib/svg/cloud-download.svg

<svg xmlns="http://www.w3.org/2000/svg" width="16" height="16" viewBox="0 0 16 16"><path d="M9 12h2l-3 3-3-3h2V7h2v5zm3-8c0-.44-.91-3-4.5-3C5.08 1 3 2.92 3 5 1.02 5 0 6.52 0 8c0 1.53 1 3 3 3h3V9.7H3C1.38 9.7 1.3 8.28 1.3 8c0-.17.05-1.7 1.7-1.7h1.3V5c0-1.39 1.56-2.7 3.2-2.7 2.55 0 3.13 1.55 3.2 1.8v1.2H12c.81 0 2.7.22 2.7 2.2 0 2.09-2.25 2.2-2.7 2.2h-2V11h2c2.08 0 4-1.16 4-3.5C16 5.06 14.08 4 12 4z"/></svg>

<?xml version="1.0" encoding="UTF-8" standalone="no"?>
<svg width="16px" height="16px" viewBox="0 0 16 16" version="1.1" xmlns="http://www.w3.org/2000/svg" xmlns:xlink="http://www.w3.org/1999/xlink">
    <!-- Generator: Sketch 3.8.3 (29802) - http://www.bohemiancoding.com/sketch -->
    <title>cloud-download</title>
    <desc>Created with Sketch.</desc>
    <defs></defs>
    <g id="Octicons" stroke="none" stroke-width="1" fill="none" fill-rule="evenodd">
        <g id="cloud-download" fill="#000000">
            <path d="M9,12 L11,12 L8,15 L5,12 L7,12 L7,7 L9,7 L9,12 L9,12 Z M12,4 C12,3.56 11.09,1 7.5,1 C5.08,1 3,2.92 3,5 C1.02,5 0,6.52 0,8 C0,9.53 1,11 3,11 L6,11 L6,9.7 L3,9.7 C1.38,9.7 1.3,8.28 1.3,8 C1.3,7.83 1.35,6.3 3,6.3 L4.3,6.3 L4.3,5 C4.3,3.61 5.86,2.3 7.5,2.3 C10.05,2.3 10.63,3.85 10.7,4.1 L10.7,5.3 L12,5.3 C12.81,5.3 14.7,5.52 14.7,7.5 C14.7,9.59 12.45,9.7 12,9.7 L10,9.7 L10,11 L12,11 C14.08,11 16,9.84 16,7.5 C16,5.06 14.08,4 12,4 L12,4 Z" id="Shape"></path>
        </g>
    </g>
</svg>
